src/assets/image-for-slider.svg

<svg width="756" height="368" fill="none" xmlns="http://www.w3.org/2000/svg"><g filter="url(#filter0_d_8_772)"><rect x="4" width="748" height="359" rx="48" fill="#0251D2"/><path d="M319.632 165.04h7.08V193h-7.08v-27.96zm10.664 8.76h6.52v2.08a8.3 8.3 0 012.76-1.96 7.829 7.829 0 013.32-.72c1.44 0 2.587.213 3.44.64a5.073 5.073 0 012.12 1.92c.8-.8 1.773-1.427 2.92-1.88a9.405 9.405 0 013.48-.68c2.533 0 4.333.653 5.4 1.96 1.067 1.28 1.6 3.133 1.6 5.56V193h-6.72v-11.28c0-1.067-.2-1.84-.6-2.32-.4-.48-1.067-.72-2-.72-1.2 0-2.173.427-2.92 1.28.027.453.04 1.147.04 2.08V193h-6.72v-11.56c0-.987-.173-1.693-.52-2.12-.347-.427-.96-.64-1.84-.64-1.36 0-2.533.76-3.52 2.28V193h-6.76v-19.2zm41.615 19.8c-2.4 0-4.347-.573-5.84-1.72-1.467-1.173-2.2-2.8-2.2-4.88 0-2.16.707-3.813 2.12-4.96 1.44-1.173 3.493-1.76 6.16-1.76 1.04 0 2.08.12 3.12.36 1.04.213 1.933.507 2.68.88v-.4c0-2.053-1.68-3.08-5.04-3.08-2.347 0-4.493.453-6.44 1.36v-4.84c.853-.4 1.973-.72 3.36-.96a22.81 22.81 0 014.32-.4c3.573 0 6.267.72 8.08 2.16 1.84 1.413 2.76 3.4 2.76 5.96V193h-6.6v-1.64c-.72.693-1.627 1.24-2.72 1.64-1.093.4-2.347.6-3.76.6zm2.08-4.32c.827 0 1.6-.16 2.32-.48.72-.347 1.267-.787 1.64-1.32v-1.68c-1.147-.773-2.453-1.16-3.92-1.16-.933 0-1.653.2-2.16.6-.507.4-.76.987-.76 1.76 0 .72.24 1.28.72 1.68.507.4 1.227.6 2.16.6zm24.831 12.92c-1.28 0-2.573-.12-3.88-.36-1.28-.24-2.387-.56-3.32-.96V196c2.107.907 4.507 1.36 7.2 1.36 1.947 0 3.347-.4 4.2-1.2.88-.8 1.32-1.973 1.32-3.52v-1.16c-.773.667-1.733 1.187-2.88 1.56-1.12.373-2.32.56-3.6.56-2.027 0-3.813-.427-5.36-1.28a9.258 9.258 0 01-3.64-3.6c-.853-1.547-1.28-3.32-1.28-5.32 0-2.027.427-3.813 1.28-5.36a8.733 8.733 0 013.6-3.56c1.547-.853 3.32-1.28 5.32-1.28 2.747 0 5.013.84 6.8 2.52v-1.92h6.8v17.88c0 3.333-1.027 5.92-3.08 7.76-2.027 1.84-5.187 2.76-9.48 2.76zm.8-14.04c1.093 0 2.067-.28 2.92-.84a4.5 4.5 0 001.8-2.24v-3.36a4.505 4.505 0 00-1.84-2.2c-.853-.56-1.813-.84-2.88-.84-1.44 0-2.6.427-3.48 1.28-.88.827-1.32 1.96-1.32 3.4 0 1.467.44 2.64 1.32 3.52.88.853 2.04 1.28 3.48 1.28zm26.642 5.44c-3.76 0-6.72-.88-8.88-2.64-2.134-1.76-3.2-4.253-3.2-7.48 0-3.173.946-5.68 2.84-7.52 1.92-1.84 4.68-2.76 8.28-2.76 2.293 0 4.253.44 5.88 1.32 1.653.853 2.893 2.04 3.72 3.56.853 1.493 1.28 3.187 1.28 5.08v2.6h-15.32c.266 1.067.933 1.84 2 2.32 1.066.48 2.52.72 4.36.72 1.253 0 2.533-.107 3.84-.32 1.333-.213 2.48-.507 3.44-.88v4.64c-.987.4-2.227.72-3.72.96-1.467.267-2.974.4-4.52.4zm3.28-12.24c-.107-1.04-.534-1.853-1.28-2.44-.747-.587-1.774-.88-3.08-.88-1.28 0-2.294.307-3.04.92-.747.587-1.174 1.387-1.28 2.4h8.68z" fill="#fff"/></g><defs><filter id="filter0_d_8_772" x="0" y="0" width="756" height="368" filterUnits="userSpaceOnUse" color-interpolation-filters="sRGB"><feFlood flood-opacity="0" result="BackgroundImageFix"/><feColorMatrix in="SourceAlpha" values="0 0 0 0 0 0 0 0 0 0 0 0 0 0 0 0 0 0 127 0" result="hardAlpha"/><feOffset dy="5"/><feGaussianBlur stdDeviation="2"/><feComposite in2="hardAlpha" operator="out"/><feColorMatrix values="0 0 0 0 0 0 0 0 0 0 0 0 0 0 0 0 0 0 0.25 0"/><feBlend in2="BackgroundImageFix" result="effect1_dropShadow_8_772"/><feBlend in="SourceGraphic" in2="effect1_dropShadow_8_772" result="shape"/></filter></defs></svg>

<svg width="756" height="368" viewBox="0 0 756 368" fill="none" xmlns="http://www.w3.org/2000/svg">
<g filter="url(#filter0_d_8_772)">
<rect x="4" width="748" height="359" rx="48" fill="#0251D2"/>
<path d="M319.632 165.04H326.712V193H319.632V165.04ZM330.296 173.8H336.816V175.88C337.616 175.027 338.536 174.373 339.576 173.92C340.616 173.44 341.723 173.2 342.896 173.2C344.336 173.2 345.483 173.413 346.336 173.84C347.216 174.267 347.923 174.907 348.456 175.76C349.256 174.96 350.229 174.333 351.376 173.88C352.523 173.427 353.683 173.2 354.856 173.2C357.389 173.2 359.189 173.853 360.256 175.16C361.323 176.44 361.856 178.293 361.856 180.72V193H355.136V181.72C355.136 180.653 354.936 179.88 354.536 179.4C354.136 178.92 353.469 178.68 352.536 178.68C351.336 178.68 350.363 179.107 349.616 179.96C349.643 180.413 349.656 181.107 349.656 182.04V193H342.936V181.44C342.936 180.453 342.763 179.747 342.416 179.32C342.069 178.893 341.456 178.68 340.576 178.68C339.216 178.68 338.043 179.44 337.056 180.96V193H330.296V173.8ZM371.911 193.6C369.511 193.6 367.564 193.027 366.071 191.88C364.604 190.707 363.871 189.08 363.871 187C363.871 184.84 364.578 183.187 365.991 182.04C367.431 180.867 369.484 180.28 372.151 180.28C373.191 180.28 374.231 180.4 375.271 180.64C376.311 180.853 377.204 181.147 377.951 181.52V181.12C377.951 179.067 376.271 178.04 372.911 178.04C370.564 178.04 368.418 178.493 366.471 179.4V174.56C367.324 174.16 368.444 173.84 369.831 173.6C371.218 173.333 372.658 173.2 374.151 173.2C377.724 173.2 380.418 173.92 382.231 175.36C384.071 176.773 384.991 178.76 384.991 181.32V193H378.391V191.36C377.671 192.053 376.764 192.6 375.671 193C374.578 193.4 373.324 193.6 371.911 193.6ZM373.991 189.28C374.818 189.28 375.591 189.12 376.311 188.8C377.031 188.453 377.578 188.013 377.951 187.48V185.8C376.804 185.027 375.498 184.64 374.031 184.64C373.098 184.64 372.378 184.84 371.871 185.24C371.364 185.64 371.111 186.227 371.111 187C371.111 187.72 371.351 188.28 371.831 188.68C372.338 189.08 373.058 189.28 373.991 189.28ZM398.822 202.2C397.542 202.2 396.249 202.08 394.942 201.84C393.662 201.6 392.555 201.28 391.622 200.88V196C393.729 196.907 396.129 197.36 398.822 197.36C400.769 197.36 402.169 196.96 403.022 196.16C403.902 195.36 404.342 194.187 404.342 192.64V191.48C403.569 192.147 402.609 192.667 401.462 193.04C400.342 193.413 399.142 193.6 397.862 193.6C395.835 193.6 394.049 193.173 392.502 192.32C390.955 191.467 389.742 190.267 388.862 188.72C388.009 187.173 387.582 185.4 387.582 183.4C387.582 181.373 388.009 179.587 388.862 178.04C389.715 176.493 390.915 175.307 392.462 174.48C394.009 173.627 395.782 173.2 397.782 173.2C400.529 173.2 402.795 174.04 404.582 175.72V173.8H411.382V191.68C411.382 195.013 410.355 197.6 408.302 199.44C406.275 201.28 403.115 202.2 398.822 202.2ZM399.622 188.16C400.715 188.16 401.689 187.88 402.542 187.32C403.395 186.76 403.995 186.013 404.342 185.08V181.72C403.969 180.787 403.355 180.053 402.502 179.52C401.649 178.96 400.689 178.68 399.622 178.68C398.182 178.68 397.022 179.107 396.142 179.96C395.262 180.787 394.822 181.92 394.822 183.36C394.822 184.827 395.262 186 396.142 186.88C397.022 187.733 398.182 188.16 399.622 188.16ZM426.264 193.6C422.504 193.6 419.544 192.72 417.384 190.96C415.25 189.2 414.184 186.707 414.184 183.48C414.184 180.307 415.13 177.8 417.024 175.96C418.944 174.12 421.704 173.2 425.304 173.2C427.597 173.2 429.557 173.64 431.184 174.52C432.837 175.373 434.077 176.56 434.904 178.08C435.757 179.573 436.184 181.267 436.184 183.16V185.76H420.864C421.13 186.827 421.797 187.6 422.864 188.08C423.93 188.56 425.384 188.8 427.224 188.8C428.477 188.8 429.757 188.693 431.064 188.48C432.397 188.267 433.544 187.973 434.504 187.6V192.24C433.517 192.64 432.277 192.96 430.784 193.2C429.317 193.467 427.81 193.6 426.264 193.6ZM429.544 181.36C429.437 180.32 429.01 179.507 428.264 178.92C427.517 178.333 426.49 178.04 425.184 178.04C423.904 178.04 422.89 178.347 422.144 178.96C421.397 179.547 420.97 180.347 420.864 181.36H429.544Z" fill="white"/>
</g>
<defs>
<filter id="filter0_d_8_772" x="0" y="0" width="756" height="368" filterUnits="userSpaceOnUse" color-interpolation-filters="sRGB">
<feFlood flood-opacity="0" result="BackgroundImageFix"/>
<feColorMatrix in="SourceAlpha" type="matrix" values="0 0 0 0 0 0 0 0 0 0 0 0 0 0 0 0 0 0 127 0" result="hardAlpha"/>
<feOffset dy="5"/>
<feGaussianBlur stdDeviation="2"/>
<feComposite in2="hardAlpha" operator="out"/>
<feColorMatrix type="matrix" values="0 0 0 0 0 0 0 0 0 0 0 0 0 0 0 0 0 0 0.25 0"/>
<feBlend mode="normal" in2="BackgroundImageFix" result="effect1_dropShadow_8_772"/>
<feBlend mode="normal" in="SourceGraphic" in2="effect1_dropShadow_8_772" result="shape"/>
</filter>
</defs>
</svg>
